X:524
T:Marsch # 524
T: efter fadern
M:2/4
L:1/16
K: D
Q: 90
AA|d2A2 F2AA|d2A2 F2A2| d2dc d2dc| d2a2 f2d2| {cd}c2E2 {EF}EDE2| E6ee|
g6ff|e3f g2f2| A4B2c2|e2dd d2d2|d6|| ef| g2b2 b2{g}ed| c2a2 a4|
g3/a/gf g2a2| f4zagf| e3f g2e2| A4B2c2| e2dd d2d2| d4zedc|d2b2 b2{g}ed|
c2a2 a4| g3/a/gf g2a2| f4 zagf| e3f g2e2| A4 B2c2| e2dd d2d2 d4z4||
|: e4e3e| e4f3e| e3c A2A2| A4 f3f| e4d4|[M:3/4] c4E4 G2B2|[M:2/4]B2AA A2A2|
A2B2 c2d2| e4 f3f|e4a4|^g4b4| a2(ab) a2(ab)| a2=g2 f2e2| d6A2|(3d2A2d2 (3f2e2d2|
d4E3/F/ED|E4 zeef|g4 zggf| e2f2 g2e2| A4B2c2| e2dd d2d2|1 d4z4:|2d4z2||

